Adwaita++/apps/16/gnome-tetraves.svg

<svg height="16" width="16" xmlns="http://www.w3.org/2000/svg">
  <g fill="#444">
    <path d="m1.0178982 1.5811135c-.3198121.3117554-.5178982.7432313-.5178982 1.2274955v10.423128c0 .475973.1875536.907342.49675949 1.216913l6.43673511-6.4443506z"/>
    <path d="m1.597561 14.981489c.3113872.320191.7423529.518511 1.2260448.518511h10.4108122c.475411 0 .906269-.187775 1.215475-.497347l-6.4367354-6.4443509z"/>
    <path d="m14.449893 1.0185107c-.311387-.32019035-.742353-.5185107-1.226045-.5185107h-10.4108118c-.4754111 0-.9062696.18777589-1.2154752.49734667l6.4367356 6.44434993z"/>
    <path d="m14.982102 14.44865c.319812-.311756.517898-.743232.517898-1.227495v-10.4231285c0-.4759735-.187553-.9073422-.496759-1.216913l-6.4367354 6.4443499z"/>
  </g>
</svg>

<svg xmlns="http://www.w3.org/2000/svg" width="16" height="16" version="1.1">
 <path fill="#444" d="M 1.0178982,1.5811135 C 0.6980861,1.8928689 0.5,2.3243448 0.5,2.808609 v 10.423128 c 0,0.475973 0.1875536,0.907342 0.49675949,1.216913 L 7.4334946,8.0042994 Z"/>
 <path fill="#444" d="M 1.597561,14.981489 C 1.9089482,15.30168 2.3399139,15.5 2.8236058,15.5 H 13.234418 c 0.475411,0 0.906269,-0.187775 1.215475,-0.497347 L 8.0131576,8.5583021 Z"/>
 <path fill="#444" d="M 14.449893,1.0185107 C 14.138506,0.69832035 13.70754,0.5 13.223848,0.5 H 2.8130362 C 2.3376251,0.5 1.9067666,0.68777589 1.597561,0.99734667 L 8.0342966,7.4416966 Z"/>
 <path fill="#444" d="M 14.982102,14.44865 C 15.301914,14.136894 15.5,13.705418 15.5,13.221155 V 2.7980265 C 15.5,2.322053 15.312447,1.8906843 15.003241,1.5811135 L 8.5665056,8.0254634 Z"/>
</svg>
